static/img/kroki/8bbf324db9e21eb47d7303870b92d970.svg

<?xml version="1.0" encoding="us-ascii" standalone="no"?><svg xmlns="http://www.w3.org/2000/svg" xmlns:xlink="http://www.w3.org/1999/xlink" contentStyleType="text/css" height="152px" preserveAspectRatio="none" style="width:248px;height:152px;" version="1.1" viewBox="0 0 248 152" width="248px" zoomAndPan="magnify"><defs/><g><!--class aws_cognito_user--><g id="elem_aws_cognito_user"><rect codeLine="22" fill="#3D176E" height="39.7891" id="aws_cognito_user" rx="2.5" ry="2.5" style="stroke:#000D19;stroke-width:0.5;" width="190" x="29" y="106.79"/><ellipse cx="44" cy="126.6845" fill="#ADD1B2" rx="11" ry="11" style="stroke:#181818;stroke-width:1.0;"/><path d="M46.9688,132.3252 Q46.3906,132.622 45.75,132.7627 Q45.1094,132.9189 44.4063,132.9189 Q41.9063,132.9189 40.5781,131.2783 Q39.2656,129.622 39.2656,126.497 Q39.2656,123.372 40.5781,121.7158 Q41.9063,120.0595 44.4063,120.0595 Q45.1094,120.0595 45.75,120.2158 Q46.4063,120.372 46.9688,120.6689 L46.9688,123.3877 Q46.3438,122.8095 45.75,122.5439 Q45.1563,122.2627 44.5313,122.2627 Q43.1875,122.2627 42.5,123.3408 Q41.8125,124.4033 41.8125,126.497 Q41.8125,128.5908 42.5,129.6689 Q43.1875,130.7314 44.5313,130.7314 Q45.1563,130.7314 45.75,130.4658 Q46.3438,130.1845 46.9688,129.6064 L46.9688,132.3252 Z " fill="#000000"/><text fill="#D9B8FF" font-family="Helvetica" font-size="17" lengthAdjust="spacing" textLength="148" x="63" y="132.5698">aws_cognito_user</text></g><!--class aws_cognito_user_pool--><g id="elem_aws_cognito_user_pool"><rect codeLine="24" fill="#3D176E" height="39.7891" id="aws_cognito_user_pool" rx="2.5" ry="2.5" style="stroke:#000D19;stroke-width:0.5;" width="234" x="7" y="7"/><ellipse cx="22" cy="26.8945" fill="#ADD1B2" rx="11" ry="11" style="stroke:#181818;stroke-width:1.0;"/><path d="M24.9688,32.5352 Q24.3906,32.832 23.75,32.9727 Q23.1094,33.1289 22.4063,33.1289 Q19.9063,33.1289 18.5781,31.4883 Q17.2656,29.832 17.2656,26.707 Q17.2656,23.582 18.5781,21.9258 Q19.9063,20.2695 22.4063,20.2695 Q23.1094,20.2695 23.75,20.4258 Q24.4063,20.582 24.9688,20.8789 L24.9688,23.5977 Q24.3438,23.0195 23.75,22.7539 Q23.1563,22.4727 22.5313,22.4727 Q21.1875,22.4727 20.5,23.5508 Q19.8125,24.6133 19.8125,26.707 Q19.8125,28.8008 20.5,29.8789 Q21.1875,30.9414 22.5313,30.9414 Q23.1563,30.9414 23.75,30.6758 Q24.3438,30.3945 24.9688,29.8164 L24.9688,32.5352 Z " fill="#000000"/><text fill="#D9B8FF" font-family="Helvetica" font-size="17" lengthAdjust="spacing" textLength="192" x="41" y="32.7798">aws_cognito_user_pool</text></g><!--link aws_cognito_user_pool to aws_cognito_user--><g id="link_aws_cognito_user_pool_aws_cognito_user"><path codeLine="26" d="M124,47.22 C124,62.49 124,83.92 124,100.53 " fill="none" id="aws_cognito_user_pool-to-aws_cognito_user" style="stroke:#1A83AF;stroke-width:2.0;"/><polygon fill="#1A83AF" points="124,105.41,128,96.41,124,100.41,120,96.41,124,105.41" style="stroke:#1A83AF;stroke-width:2.0;"/></g><!--SRC=[XP1DIyD048Rl_HKBEHSIWwQz26cXwAM8zIPIjjdPP4co4sOdbYh-TvjMPKtwSPttcPbdfZ0A1DGDxqGDzGR8ZLnfR2D9rY8bmkqSAoGHQ2rrdFJ31Lg-2Ynb3U81gdTWaya-yLAOhBJWdBZnefdCofomjUeudabQju_0iaVDA-bSoancqp9uCcgwcMZT9_j3WrX5oHqCC2G5z8E4OQYYQH-vkkhYtN_4odo0YFodBP5Xe3bOSQ0kMdQ49pauz3S_w_WabJ8s5xTUxVdeH1ReNtrLI8NRZjQoSluQnq20l6jWFhWAfXEbavFmupauwpudvDQjCyojOLotRY_pEVew4wqRnEgGdqx6hq6KJk9qyJQ-7pH_0m00]--></g></svg>

<svg xmlns="http://www.w3.org/2000/svg" width="248" height="152" preserveAspectRatio="none" style="width:248px;height:152px"><rect width="190" height="39.789" x="29" y="106.79" fill="#3D176E" rx="2.5" ry="2.5" style="stroke:#000d19;stroke-width:.5"/><circle cx="44" cy="126.684" r="11" fill="#ADD1B2" style="stroke:#181818;stroke-width:1"/><path d="M46.969 132.325q-.578.297-1.219.438-.64.156-1.344.156-2.5 0-3.828-1.64-1.312-1.657-1.312-4.782t1.312-4.781q1.328-1.656 3.828-1.656.703 0 1.344.156.656.156 1.219.453v2.719q-.625-.579-1.219-.844-.594-.281-1.219-.281-1.343 0-2.031 1.078-.688 1.062-.688 3.156 0 2.094.688 3.172.688 1.062 2.031 1.062.625 0 1.219-.265.594-.281 1.219-.86v2.72Z"/><text x="63" y="132.57" fill="#D9B8FF" font-family="Helvetica" font-size="17" textLength="148">aws_cognito_user</text><rect width="234" height="39.789" x="7" y="7" fill="#3D176E" rx="2.5" ry="2.5" style="stroke:#000d19;stroke-width:.5"/><circle cx="22" cy="26.895" r="11" fill="#ADD1B2" style="stroke:#181818;stroke-width:1"/><path d="M24.969 32.535q-.578.297-1.219.438-.64.156-1.344.156-2.5 0-3.828-1.64-1.312-1.657-1.312-4.782t1.312-4.781q1.328-1.656 3.828-1.656.703 0 1.344.156.656.156 1.219.453v2.719q-.625-.578-1.219-.844-.594-.281-1.219-.281-1.343 0-2.031 1.078-.688 1.062-.688 3.156 0 2.094.688 3.172.688 1.062 2.031 1.062.625 0 1.219-.265.594-.281 1.219-.86v2.72Z"/><text x="41" y="32.78" fill="#D9B8FF" font-family="Helvetica" font-size="17" textLength="192">aws_cognito_user_pool</text><path fill="none" d="M124 47.22v53.31" style="stroke:#1a83af;stroke-width:2"/><path fill="#1A83AF" d="m124 105.41 4-9-4 4-4-4 4 9z" style="stroke:#1a83af;stroke-width:2"/></svg>
